dist/img/ship_icon.svg

<svg width="68" height="68" viewBox="0 0 68 68" fill="none" xmlns="http://www.w3.org/2000/svg">
<circle cx="34" cy="34" r="34" fill="#0D1B2B"/>
<path d="M43.4019 29.4681V23.5107H39.9977V20.1064H28.0828V23.5107H24.6785V29.4681" stroke="white" stroke-width="1.5" stroke-linejoin="round"/>
<path d="M37.4445 20.1064V15.8511H30.636V20.1064" stroke="white" stroke-width="1.5" stroke-linejoin="round"/>
<path d="M23.8275 42.2343C23.8275 42.2343 20.2462 35.4028 19.5721 32.5747C19.5721 32.5747 28.5909 27.1083 34.0402 26.0845C39.4896 27.1083 48.5083 32.5747 48.5083 32.5747C47.8343 35.4028 44.253 42.2343 44.253 42.2343" stroke="white" stroke-width="1.5" stroke-linejoin="round"/>
<path d="M14.4658 43.6177L17.6615 41.5284C18.379 41.0594 19.3143 41.1156 19.9721 41.6671L21.1645 42.6688C21.8343 43.2305 22.7917 43.2773 23.5117 42.7828L25.3058 41.5496C26.0087 41.0671 26.9398 41.0986 27.6087 41.6279L28.9738 42.7071C29.6564 43.2467 30.6104 43.2671 31.3151 42.7573L32.9483 41.576C33.6377 41.0773 34.5662 41.085 35.2479 41.5939L36.7807 42.7394C37.4768 43.2603 38.4292 43.2552 39.1211 42.7275L40.5883 41.6067C41.2649 41.0901 42.1943 41.073 42.8879 41.565L44.5858 42.7675C45.2964 43.2713 46.2513 43.2407 46.9287 42.6926L48.2266 41.6424C48.8904 41.1045 49.8241 41.0637 50.5321 41.5411L53.6147 43.6177" stroke="white" stroke-width="1.5" stroke-linejoin="round"/>
<path d="M14.4658 48.1918L17.6615 46.1016C18.379 45.6326 19.3143 45.6896 19.9721 46.2411L21.1645 47.242C21.8343 47.8045 22.7917 47.8514 23.5117 47.3569L25.3058 46.1237C26.0087 45.6411 26.9398 45.6726 27.6087 46.202L28.9738 47.2811C29.6564 47.8207 30.6104 47.8411 31.3151 47.3314L32.9483 46.1501C33.6377 45.6514 34.5662 45.6582 35.2479 46.1679L36.7807 47.3135C37.4768 47.8343 38.4292 47.8292 39.1211 47.3016L40.5883 46.1807C41.2649 45.6641 42.1943 45.6471 42.8879 46.139L44.5858 47.3416C45.2964 47.8454 46.2513 47.8148 46.9287 47.2667L48.2266 46.2165C48.8904 45.6786 49.8241 45.6377 50.5321 46.1152L53.6147 48.1918" stroke="white" stroke-width="1.5" stroke-linejoin="round"/>
<path d="M34.0403 26.064V38.8299" stroke="white" stroke-width="1.5" stroke-linejoin="round"/>
<path d="M29.7849 31.1704V32.8725" stroke="white" stroke-width="1.5" stroke-linejoin="round"/>
</svg>

<svg width="68" height="68" fill="none" xmlns="http://www.w3.org/2000/svg"><circle cx="34" cy="34" r="34" fill="#0D1B2B"/><path d="M43.402 29.468v-5.957h-3.404v-3.405H28.083v3.405h-3.404v5.957" stroke="#fff" stroke-width="1.5" stroke-linejoin="round"/><path d="M37.444 20.106v-4.255h-6.808v4.255m-6.808 22.128s-3.582-6.831-4.256-9.66c0 0 9.019-5.466 14.468-6.49 5.45 1.024 14.468 6.49 14.468 6.49-.674 2.829-4.255 9.66-4.255 9.66" stroke="#fff" stroke-width="1.5" stroke-linejoin="round"/><path d="M14.466 43.618l3.196-2.09a1.939 1.939 0 012.31.14l1.192 1a1.94 1.94 0 002.348.115l1.794-1.233a1.938 1.938 0 012.303.078l1.365 1.08c.682.539 1.636.56 2.341.05l1.633-1.182a1.938 1.938 0 012.3.018l1.533 1.145a1.938 1.938 0 002.34-.011l1.467-1.121a1.937 1.937 0 012.3-.042l1.698 1.203a1.94 1.94 0 002.343-.075l1.298-1.05a1.937 1.937 0 012.305-.102l3.083 2.077m-39.149 4.574l3.196-2.09a1.939 1.939 0 012.31.14l1.192 1c.67.563 1.628.61 2.348.115l1.794-1.233a1.938 1.938 0 012.303.078l1.365 1.08c.682.539 1.636.56 2.341.05l1.633-1.182a1.937 1.937 0 012.3.018l1.533 1.145a1.938 1.938 0 002.34-.011l1.467-1.121a1.937 1.937 0 012.3-.042l1.698 1.203a1.94 1.94 0 002.343-.075l1.298-1.05a1.937 1.937 0 012.305-.102l3.083 2.077M34.04 26.064V38.83m-4.255-7.66v1.703" stroke="#fff" stroke-width="1.5" stroke-linejoin="round"/></svg>
